X: 32151
T: Peter Parson's
R: barndance
M: 4/4
K: Dmajor
|:c>g|f2 d2 e>d (3dcB|A2 F2 D>A (3FGA|B2 (3AGF G2 E2|A>BA>G F2 D2|
f2 d>f e2 c>B|(3ABA F>A D2 F>A|B>Ge>A g>f (3edc|d2 f2 d2:|
|:(3edB|A2 f2 d>e (3fed|B>gg>f g2 f>a|g2 e2 c2 (3bag|f>ed>c B2 ^A2|
A>ff>^e f>dc>d|B>g (3agf g2 f>a|g>fg>e c2 (3ABc|(3efe d2 d2:|

